icons/lines/game.svg

<svg xmlns="http://www.w3.org/2000/svg" width="24" height="24" viewBox="0 0 24 24" fill="none" stroke="currentColor" stroke-width="2" stroke-linecap="round" stroke-linejoin="round" >
  <path d="M9.56953 12.46L6.51953 15.51" stroke-miterlimit="10"/>
  <path d="M6.5498 12.49L9.5998 15.54" stroke-miterlimit="10"/>
  <path d="M13.5303 14H13.5403" stroke-miterlimit="10"/>
  <path d="M17.4697 14H17.4797" stroke-miterlimit="10"/>
  <path d="M15.5 15.98V15.96" stroke-miterlimit="10"/>
  <path d="M15.5 12.04V12.02" stroke-miterlimit="10"/>
  <path d="M9 22H15C20 22 22 20 22 15V13C22 8 20 6 15 6H9C4 6 2 8 2 13V15C2 20 4 22 9 22Z"/>
  <path d="M13.0105 2L13.0005 3.01C12.9905 3.56 12.5505 4 12.0005 4H11.9705C11.4205 4 10.9805 4.45 10.9805 5C10.9805 5.55 11.4305 6 11.9805 6H12.9805"/>
  </svg>

<svg xmlns="http://www.w3.org/2000/svg" width="24" height="24" viewBox="0 0 24 24" fill="none" stroke="currentColor" stroke-width="2" stroke-linecap="round" stroke-linejoin="round">
  <path d="M13.01 2 13 3.01A1 1 0 0 1 12 4a1 1 0 1 0-.02 2" />
  <path d="M13.53 14h.01" />
  <path d="M15 22c5 0 7-2 7-7v-2c0-5-2-7-7-7H9c-5 0-7 2-7 7v2c0 5 2 7 7 7z" />
  <path d="M15.5 12.04h.01" />
  <path d="M15.5 15.98h.01" />
  <path d="M17.47 14h.01" />
  <path d="m6.55 12.49 3.05 3.05" />
  <path d="m9.57 12.46-3.05 3.05" />
</svg>
